X:1
T:Charles Gray Esqr. of Carse's Strathspey
M:C|
L:1/16
R:Strathspey
B:Archibald Duff – Collection of Strathspey Reels &c. (1794, p. 9)
Z:AK/Fiddler’s Companion
K:F
C2|F3GA2F2 cF3dF3|c2F2 dcBA BG3G2A2|F3GA2F2 cF3dF3|
c2F2 BAGF C2F2 F2:|c2|f3gaf3 cf3af3|df3 dcBA Gg3ga3|
f3ga2f2 cf3af3|d2f2 cBAG Ff3fa3|f3gaf3 cf3af3|
df3 dcBA Gg3g3b|af3ge3 fd3cA3|BG3 {AB}c3B A2F2 F2||

